X: 35253
T: Rose Amang The Heather, The
R: strathspey
M: 4/4
K: Dmajor
|:f2 f>e d2 d>B|A>FA<d c<e e2|f3 e d3 B|c<de>a f<d d2:|
|:D2 (3FED F2 A>d|B2 (3Bcd c<e e2|1 (3DDD F>D F>A (3AAd|
c<de>a f<d d2:|2 B2 (3dcB A<d (3fga|g>fe>a f<d d2||

